modules/feathericon/icons/compress.svg

<svg width="24" height="24" viewBox="0 0 24 24" xmlns="http://www.w3.org/2000/svg"><path d="M18 12h-6V6l2 2 3-3 2 2-3 3 2 2zM6 12h6v6l-2-2-3 3-2-2 3-3-2-2z" fill="#000" fill-rule="evenodd"/></svg>

<?xml version="1.0" encoding="UTF-8"?>
<svg width="24px" height="24px" viewBox="0 0 24 24" version="1.1" xmlns="http://www.w3.org/2000/svg" xmlns:xlink="http://www.w3.org/1999/xlink">
    <!-- Generator: sketchtool 52.2 (67145) - http://www.bohemiancoding.com/sketch -->
    <title>compress</title>
    <desc>Created with sketchtool.</desc>
    <g id="media-player" stroke="none" stroke-width="1" fill="none" fill-rule="evenodd">
        <g id="compress" fill="#000000">
            <path d="M18,12 L12,12 L12,6 L14,8 L17,5 L19,7 L16,10 L18,12 Z M6,12 L12,12 L12,18 L10,16 L7,19 L5,17 L8,14 L6,12 Z" id="Shape"></path>
        </g>
    </g>
</svg>
